X:196
T: Shui shen zi you bai du ren
N: C1688
O: China,nan Jiangxi, Nanchang
S: IV, 256]
R: Xiaodiao, Mengjiangn diao, Yifan diao. Nann qing]
M: 2/4
L: 1/32
K: C
e4d8g4e8 | A4c2A2g2e2d4- | d4
e4c8 | d2e2d2A2G8 | A3cd2e2c2A2G4- | G4^F4G8 |
A2G2A8g2e2d6c2 | d4d2B2A8 |
G6A2g3ed2A2c8 | c3dg2e2d6A2 | B2d2B2A2G8

@@@ Tune index: 6751
